X:355
T:Virginia
R:reel
Z:Transcribed by Dave Marshall
M:C|
K:D
|: DBBA B4 | BAdB AFEF | D~F3 A~F3 | AFBF AFEF |
DBBA B4 | BAdB ABde | ~f3e dfec | dBAF BEE2 :|
|:dffe d3A | BAFA BAFA | dffe defg | afbf afeg |
f~d3 edBd | A~F3 ABde | ~f3e dfec | dBAF BEE2 :|
